X:78
T: LIEBER FREUND ICH FRAGE DICH
N: K1602
O: Europa, Mitteleuropa, Deutschland, Boehmen
R: Kinder - Lied, religioes, Gebet
M: 4/4
L: 1/8
K: G
 | G2G2G2A2 | GFE2D2z2 |
G2G2G2A2 | GFE2D2z2 |
E2E2F2F2 | G4z4 |
G2B2B2d2 | d2c2A4 |
G2B2B2d2 | d2c2A2
c2 | B2G2F2A2 | A4G2z2

@@@ Tune index: 7415
